images/Path.svg

<svg width="10" height="20" viewBox="0 0 10 20" fill="none" xmlns="http://www.w3.org/2000/svg">
<path d="M8.14971 3.29509H9.96139V0.139742C9.64884 0.0967442 8.5739 0 7.32201 0C4.70992 0 2.92057 1.643 2.92057 4.66274V7.44186H0.0380859V10.9693H2.92057V19.845H6.45462V10.9701H9.22052L9.65958 7.44269H6.4538V5.01251C6.45462 3.99297 6.72915 3.29509 8.14971 3.29509Z" fill="#1E2833" style="fill:#1E2833;fill:color(display-p3 0.1176 0.1569 0.2000);fill-opacity:1;"/>
</svg>

<svg xmlns="http://www.w3.org/2000/svg" width="10" height="20" fill="none"><path fill="#1E2833" d="M8.15 3.295H9.96V.14A23 23 0 0 0 7.322 0C4.71 0 2.921 1.643 2.921 4.663v2.779H.038v3.527h2.883v8.876h3.534V10.97H9.22l.439-3.527H6.454v-2.43c0-1.02.275-1.718 1.696-1.718" style="fill:#1e2833;fill:color(display-p3 .1176 .1569 .2);fill-opacity:1"/></svg>
